Assets/Packages/PostProcessing/Textures/Cubes/loot.cube
#Created by: Adobe Photoshop Export Color Lookup Plugin
TITLE "loot"
#LUT size
LUT_3D_SIZE 33
#data domain
DOMAIN_MIN 0.0 0.0 0.0
DOMAIN_MAX 1.0 1.0 1.0
#LUT data points
0.759338 0.803345 0.710663
0.751770 0.794128 0.702423
0.749878 0.790894 0.700348
0.744415 0.785156 0.695648
0.744690 0.787018 0.697174
0.746826 0.789764 0.700073
0.742493 0.782562 0.693573
0.744690 0.787018 0.697174
0.743103 0.784973 0.696594
0.739227 0.779816 0.692444
0.739380 0.780090 0.693207
0.737610 0.779266 0.691925
0.741302 0.784058 0.695343
0.736664 0.776306 0.687256
0.732880 0.771423 0.683868
0.731598 0.769501 0.680511
0.730042 0.766327 0.678558
0.732697 0.770416 0.683044
0.732880 0.771423 0.683868
0.732880 0.772125 0.683868
0.736969 0.776825 0.688843
0.739563 0.781799 0.694000
0.735596 0.776642 0.689789
0.732910 0.772858 0.686737
0.732910 0.772858 0.686737
0.729004 0.765350 0.678925
0.729248 0.765869 0.677490
0.730652 0.767242 0.678711
0.728027 0.763153 0.674164
0.734833 0.774719 0.685944
0.731598 0.768707 0.680511
0.732574 0.770966 0.682312
0.732391 0.770691 0.681519
0.816254 0.885254 0.791718
0.810272 0.875885 0.781921
0.808807 0.875275 0.781403
0.803711 0.863861 0.769409
0.800323 0.860077 0.766205
0.800049 0.859009 0.764862
0.792694 0.849884 0.755676
0.791504 0.849762 0.756622
0.791504 0.849121 0.756622
0.788330 0.845642 0.754852
0.786987 0.845306 0.755035
0.783417 0.840515 0.751129
0.778076 0.834290 0.746033
0.776123 0.831665 0.743286
0.774261 0.829926 0.741302
0.768280 0.820648 0.733154
0.771271 0.823029 0.733490
0.769897 0.823334 0.733704
0.764252 0.815948 0.727631
0.756287 0.805481 0.717316
0.755829 0.803345 0.715088
0.749969 0.795593 0.708160
0.745972 0.791779 0.703308
0.737244 0.777222 0.690369
0.733185 0.772614 0.685394
0.730194 0.767273 0.679291
0.727692 0.763428 0.675507
0.722809 0.755768 0.668762
0.723602 0.756989 0.669739
0.728027 0.763153 0.674164
0.724518 0.757721 0.668610
0.722595 0.754791 0.664948
0.718323 0.747284 0.658264
0.718719 0.746521 0.657684
0.715424 0.741302 0.652832
0.714752 0.740295 0.652588
0.715912 0.742767 0.655212
0.717499 0.745270 0.657288
0.716675 0.743988 0.656250
0.721069 0.751495 0.662964
0.725586 0.757965 0.668213
0.723358 0.753021 0.662964
0.724274 0.755981 0.664795
0.722504 0.752472 0.661987
0.718842 0.746002 0.655426
0.716309 0.742035 0.651581
0.714539 0.739227 0.648926
0.709137 0.731476 0.642639
0.709137 0.730652 0.642639
0.705933 0.726410 0.638702
0.703735 0.722900 0.636780
0.704651 0.725159 0.638275
0.703644 0.722778 0.636200
0.697937 0.713776 0.629150
0.700134 0.717255 0.630981
0.701782 0.719879 0.633331
0.698425 0.714630 0.628754
0.701538 0.718719 0.632050
0.702454 0.720184 0.633545
0.699677 0.715088 0.629150
0.700623 0.717316 0.630646
0.698517 0.712524 0.626465
0.701111 0.718079 0.630188
0.697113 0.710999 0.625458
0.699585 0.714905 0.628540
0.700989 0.717133 0.629578
0.712952 0.739746 0.649719
0.711304 0.736359 0.647278
0.709137 0.732910 0.645447
0.713287 0.740234 0.651337
0.706299 0.727783 0.640533
0.710144 0.733795 0.644653
0.705292 0.726166 0.638458
0.707458 0.728821 0.640350
0.700195 0.717407 0.631592
0.705292 0.725433 0.638458
0.700195 0.717407 0.631592
0.698547 0.714813 0.629364
0.694397 0.708160 0.623932
0.690277 0.701782 0.619110
0.690277 0.701782 0.619110
0.691101 0.703827 0.619934
0.687500 0.696808 0.614655
0.689117 0.699127 0.616333
0.685760 0.695038 0.612335
0.687347 0.697144 0.614014
0.684967 0.694000 0.611481
0.683289 0.691071 0.609161
0.689911 0.700378 0.617218
0.688934 0.698059 0.615723
0.685760 0.694519 0.612335
0.686829 0.696503 0.614502
0.684967 0.692780 0.611481
0.690033 0.700592 0.617889
0.694092 0.707001 0.622711
0.692535 0.704529 0.620972
0.693359 0.705811 0.621887
0.699677 0.715088 0.629150
0.699036 0.714874 0.628937
0.709869 0.732666 0.643433
0.706665 0.728363 0.639496
0.700867 0.717712 0.631866
0.701660 0.718903 0.632690
0.699188 0.715790 0.629578
0.700867 0.719238 0.631866
0.696838 0.712891 0.627075
0.702454 0.720947 0.633545
0.704926 0.724823 0.636627
0.700134 0.717255 0.630981
0.702148 0.719788 0.632263
0.699310 0.716003 0.630188
0.695801 0.710449 0.625061
0.698120 0.714172 0.627472
0.696472 0.710724 0.625214
0.697266 0.712006 0.626068
0.698273 0.714355 0.628082
0.698273 0.715149 0.628082
0.695801 0.710449 0.625061
0.691467 0.702911 0.618927
0.690704 0.701630 0.618103
0.688934 0.698944 0.615723
0.689758 0.700104 0.616577
0.683929 0.691895 0.609375
0.686340 0.695160 0.611908
0.682983 0.690674 0.607941
0.681244 0.688232 0.605530
0.683777 0.691742 0.608795
0.680420 0.687256 0.604675
0.681061 0.688049 0.604919
0.682159 0.689545 0.607056
0.677307 0.683105 0.601929
0.678131 0.684235 0.602722
0.703186 0.721344 0.634308
0.704346 0.724731 0.637054
0.703644 0.723511 0.636200
0.703735 0.723724 0.636780
0.708618 0.731354 0.643005
0.711029 0.735168 0.646088
0.710510 0.734344 0.646454
0.719879 0.749756 0.660309
0.719086 0.747742 0.659271
0.721985 0.753021 0.664795
0.727051 0.761627 0.672363
0.728149 0.763397 0.674927
0.728149 0.763397 0.674927
0.725952 0.760742 0.672729
0.731903 0.770020 0.682068
0.730347 0.768250 0.680084
0.728516 0.764618 0.676544
0.734650 0.773712 0.685181
0.730530 0.769257 0.680908
0.732239 0.771942 0.683594
0.737610 0.779999 0.691925
0.735596 0.776642 0.689789
0.732910 0.772858 0.686737
0.737762 0.779510 0.692657
0.736237 0.779022 0.692871
0.738220 0.780914 0.694977
0.733093 0.774506 0.690430
0.728729 0.766998 0.683197
0.728729 0.766998 0.683197
0.723663 0.759186 0.675659
0.724426 0.760376 0.676605
0.726166 0.763062 0.679413
0.722107 0.756775 0.673645
0.729370 0.766052 0.675323
0.731445 0.770020 0.679749
0.736145 0.774902 0.684906
0.736298 0.775848 0.685730
0.734161 0.772980 0.682831
0.736664 0.777039 0.687256
0.734833 0.774719 0.685944
0.736816 0.777313 0.688080
0.740845 0.782654 0.692993
0.738892 0.780090 0.690887
0.735016 0.774994 0.686737
0.732697 0.771881 0.683044
0.730988 0.768463 0.680328
0.732391 0.770691 0.681519
0.734314 0.773254 0.683563
0.728027 0.763153 0.674164
0.720398 0.751282 0.662720
0.722595 0.754028 0.664948
0.719086 0.748535 0.659271
0.717346 0.745789 0.656403
0.717651 0.746277 0.658051
0.720245 0.751038 0.661987
0.720062 0.750031 0.661102
0.716858 0.745056 0.657043
0.720703 0.751740 0.664307
0.722443 0.755249 0.667145
0.722809 0.755035 0.668762
0.726135 0.760193 0.673553
0.724731 0.758636 0.672302
0.726288 0.761200 0.674347
0.729248 0.765137 0.677490
0.727875 0.763611 0.676361
0.728027 0.763794 0.677063
0.733643 0.770844 0.680481
0.729980 0.764893 0.675537
0.731720 0.768280 0.678345
0.735840 0.774475 0.683411
0.731873 0.769318 0.679138
0.730957 0.767731 0.677338
0.733826 0.771790 0.681244
0.732208 0.770416 0.680695
0.738434 0.779358 0.688599
0.744415 0.787292 0.695648
0.740662 0.783081 0.692230
0.742828 0.785889 0.695129
0.748566 0.792877 0.701385
0.748566 0.792145 0.701385
0.746674 0.790344 0.699310
0.750458 0.794647 0.703461
0.754761 0.801697 0.709808
0.754608 0.800781 0.709045
0.748413 0.792603 0.700562
0.742126 0.782806 0.691986
0.736298 0.775848 0.685730
0.736145 0.776306 0.684906
0.734009 0.772797 0.682037
0.732208 0.770416 0.680695
0.735840 0.774475 0.683411
0.730133 0.766541 0.676361
0.726105 0.760895 0.670563
0.728302 0.763672 0.672791
0.721619 0.752502 0.663116
0.727478 0.762390 0.671783
0.726532 0.760193 0.670013
0.724182 0.756500 0.667023
0.725952 0.759918 0.669800
0.761353 0.807526 0.713409
0.765869 0.814972 0.721344
0.759949 0.806335 0.713684
0.760406 0.807800 0.715912
0.764160 0.812714 0.719971
0.767761 0.816803 0.723328
0.766022 0.815155 0.722015
0.768036 0.818604 0.724823
0.770050 0.821259 0.727570
0.768036 0.818604 0.724823
0.769562 0.819153 0.725372
0.769745 0.820068 0.726074
0.767914 0.817657 0.724060
0.763977 0.813202 0.719208
0.762146 0.810120 0.717255
0.762146 0.810699 0.717255
0.761963 0.810486 0.716461
0.759613 0.805939 0.712189
0.753815 0.798187 0.705231
0.751892 0.796448 0.703156
0.751587 0.795959 0.701660
0.747772 0.790955 0.697479
0.743622 0.785431 0.691772
0.743622 0.785431 0.691772
0.745209 0.786743 0.692291
0.743256 0.784210 0.690247
0.739075 0.778595 0.684479
0.737305 0.777008 0.683136
0.727448 0.761627 0.668823
0.725525 0.758698 0.665222
0.724396 0.756165 0.662537
0.721832 0.752228 0.658722
0.722656 0.753479 0.659729
0.770325 0.819946 0.722107
0.764801 0.812714 0.716064
0.761017 0.807648 0.711914
0.760895 0.806793 0.711182
0.760712 0.805145 0.710449
0.758698 0.801758 0.707611
0.764801 0.811981 0.716064
0.760712 0.805847 0.710449
0.763062 0.810425 0.714752
0.765106 0.813110 0.717499
0.765259 0.813385 0.718353
0.769562 0.819885 0.725372
0.763977 0.812469 0.719208
0.771454 0.821655 0.727356
0.771729 0.822754 0.728821
0.769562 0.819153 0.725372
0.763977 0.812469 0.719208
0.761963 0.809784 0.716461
0.757874 0.804352 0.710876
0.763550 0.811127 0.717010
0.761536 0.807739 0.714203
0.757874 0.804352 0.710876
0.763397 0.810211 0.716248
0.759460 0.805023 0.711395
0.759766 0.806122 0.712952
0.756042 0.801941 0.708801
0.753967 0.798462 0.705994
0.757751 0.803467 0.710114
0.752106 0.796722 0.703949
0.747925 0.790436 0.698273
0.748077 0.792084 0.699036
0.743896 0.785858 0.693298
0.740051 0.780731 0.689148
0.715790 0.740601 0.646484
0.712769 0.736572 0.643250
0.714203 0.738770 0.644287
0.710144 0.732361 0.638916
0.705994 0.725189 0.633545
0.705994 0.725952 0.633545
0.705994 0.725952 0.633545
0.704346 0.722534 0.631256
0.704468 0.723511 0.631897
0.704620 0.723724 0.632507
0.706177 0.726166 0.634186
0.703735 0.721497 0.631073
0.701355 0.718536 0.628540
0.702942 0.721039 0.630280
0.701996 0.719604 0.628754
0.702789 0.720856 0.629578
0.698761 0.713715 0.624786
0.699585 0.715790 0.625671
0.704468 0.723511 0.631897
0.699707 0.715973 0.626312
0.702271 0.720825 0.630005
0.698120 0.713501 0.624573
0.702942 0.721039 0.630280
0.701355 0.718536 0.628540
0.702118 0.719818 0.629364
0.701233 0.718353 0.627960
0.704620 0.724457 0.632507
0.702271 0.720062 0.630005
0.698242 0.714417 0.625214
0.699280 0.716064 0.627289
0.698242 0.713623 0.625214
0.699158 0.715820 0.626678
0.696045 0.710144 0.623322
0.704590 0.722992 0.629639
0.706268 0.725616 0.631897
0.707031 0.726776 0.632690
0.701477 0.718048 0.626251
0.707153 0.726990 0.633331
0.705505 0.724365 0.631073
0.704590 0.722992 0.629639
0.702271 0.719330 0.627106
0.703949 0.721893 0.629395
0.705505 0.724365 0.631073
0.705597 0.724609 0.631683
0.707916 0.728149 0.634155
0.702423 0.719513 0.627777
0.704865 0.723328 0.630859
0.701599 0.718231 0.626892
0.702271 0.719330 0.627106
0.699921 0.715546 0.624573
0.698242 0.713684 0.622284
0.696442 0.709290 0.619324
0.700684 0.717590 0.625427
0.698242 0.712982 0.622284
0.702423 0.719513 0.627777
0.701752 0.719238 0.627533
0.700958 0.718048 0.626709
0.703430 0.721863 0.629822
0.699432 0.714722 0.625061
0.702667 0.719879 0.628998
0.704193 0.722321 0.630646
0.705872 0.724915 0.632904
0.700348 0.716187 0.626495
0.703613 0.721252 0.630402
0.705994 0.725952 0.633545
0.701111 0.717407 0.627319
0.733643 0.769775 0.673096
0.739899 0.777954 0.681061
0.737427 0.773895 0.676544
0.731720 0.767883 0.670990
0.727051 0.760376 0.664215
0.731720 0.767883 0.670990
0.727814 0.761566 0.665222
0.727051 0.760376 0.664215
0.724518 0.756500 0.660339
0.727997 0.761841 0.665985
0.724731 0.757507 0.661194
0.723724 0.755249 0.659302
0.720245 0.748993 0.653625
0.725311 0.757690 0.661377
0.720398 0.750031 0.654480
0.723572 0.754303 0.658539
0.721802 0.752228 0.655701
0.720795 0.750732 0.653809
0.718201 0.745880 0.649597
0.718079 0.745636 0.648956
0.715057 0.740845 0.645660
0.715668 0.741882 0.645905
0.711761 0.735748 0.641174
0.708588 0.729980 0.637268
0.709991 0.732178 0.638275
0.700348 0.717041 0.626495
0.683624 0.690186 0.605103
0.658875 0.657043 0.575348
0.648132 0.642029 0.561951
0.641937 0.633759 0.554932
0.632446 0.621216 0.545288
0.630035 0.617981 0.543579
0.622253 0.607758 0.536377
0.648102 0.643005 0.570618
0.642670 0.635742 0.563995
0.644318 0.638000 0.565765
0.638153 0.629730 0.558838
0.633484 0.623474 0.552948
0.631714 0.621155 0.551056
0.633484 0.623474 0.552948
0.628906 0.616791 0.547668
0.626984 0.614899 0.545166
0.625244 0.611847 0.543579
0.618866 0.602753 0.536774
0.621552 0.607056 0.539551
0.623322 0.609283 0.541046
0.625854 0.612640 0.543274
0.622467 0.608185 0.540314
0.620697 0.605560 0.537811
0.624054 0.610229 0.541260
0.620697 0.605560 0.537811
0.619324 0.604156 0.536407
0.617065 0.599945 0.533356
0.621338 0.606659 0.538483
0.618561 0.602264 0.535217
0.619232 0.602631 0.535919
0.619904 0.604370 0.536621
0.617065 0.598633 0.533356
0.614990 0.595978 0.531250
0.617065 0.599243 0.533356
0.617065 0.599945 0.533356
0.615692 0.597809 0.531952
0.616241 0.598022 0.532104
0.616241 0.598022 0.532104
0.616394 0.598907 0.532654
0.612061 0.591309 0.527405
0.676575 0.685577 0.609955
0.676422 0.685974 0.609314
0.672943 0.680664 0.604645
0.667603 0.672302 0.597565
0.664948 0.668732 0.594299
0.658844 0.660034 0.586945
0.659393 0.659424 0.586517
0.656860 0.656128 0.583893
0.655182 0.653809 0.582092
0.655029 0.653015 0.581451
0.648682 0.643890 0.573303
0.642548 0.635712 0.566437
0.641357 0.634094 0.564209
0.639465 0.630920 0.561707
0.632172 0.621857 0.553131
0.630585 0.619720 0.552063
0.632172 0.621155 0.553131
0.628662 0.617188 0.549561
0.630249 0.618622 0.550659
0.633820 0.623383 0.554321
0.628174 0.615173 0.547485
0.632599 0.621704 0.552032
0.629761 0.617310 0.548645
0.632324 0.620605 0.550690
0.631256 0.618500 0.549103
0.631256 0.619202 0.549103
0.636536 0.625549 0.554504
0.631104 0.618927 0.548401
0.635651 0.625000 0.553650
0.631104 0.618927 0.548401
0.629181 0.616333 0.545898
0.631836 0.619843 0.548615
0.630798 0.618500 0.547028
0.691864 0.704926 0.626617
0.685944 0.695526 0.618835
0.681702 0.689209 0.613373
0.679932 0.686859 0.611053
0.673889 0.678741 0.603149
0.668671 0.671783 0.596680
0.668671 0.671783 0.596680
0.658112 0.657654 0.583618
0.660645 0.661011 0.586304
0.653320 0.650635 0.576660
0.655701 0.653748 0.578613
0.652863 0.649353 0.574615
0.650757 0.645752 0.570892
0.652588 0.648956 0.573334
0.649902 0.645294 0.570007
0.648071 0.642822 0.567535
0.642609 0.635559 0.560852
0.645325 0.639191 0.564209
0.643463 0.636627 0.561707
0.639862 0.631897 0.557465
0.636230 0.626373 0.553131
0.628906 0.616608 0.544678
0.629883 0.618622 0.546112
0.622009 0.608154 0.538239
0.621857 0.607269 0.537659
0.622101 0.608368 0.538757
0.616119 0.598450 0.531555
0.620483 0.605896 0.536774
0.619659 0.604675 0.535583
0.615326 0.596497 0.530304
0.613312 0.594055 0.528259
0.612732 0.593109 0.528046
0.612854 0.593323 0.528625
0.675446 0.680634 0.598877
0.675293 0.679779 0.598267
0.673645 0.677582 0.596497
0.669464 0.671356 0.591553
0.670258 0.672394 0.592407
0.665985 0.666687 0.587402
0.664368 0.664551 0.585663
0.658356 0.657135 0.578857
0.664368 0.665161 0.585663
0.660034 0.659424 0.580627
0.661743 0.661652 0.582336
0.657471 0.656067 0.577972
0.657318 0.655853 0.577301
0.655518 0.652771 0.574890
0.652985 0.649384 0.572205
0.648804 0.644318 0.567780
0.646912 0.641235 0.565338
0.641571 0.634186 0.559265
0.638123 0.629608 0.555664
0.631836 0.621216 0.548615
0.628296 0.617188 0.544983
0.627563 0.615509 0.544739
0.619324 0.604156 0.536407
0.618774 0.603943 0.536255
0.618866 0.604095 0.536774
0.615356 0.598602 0.532806
0.613342 0.595367 0.530762
0.608551 0.587830 0.525848
0.605713 0.582520 0.522522
0.605011 0.582123 0.521820
0.601379 0.576447 0.517761
0.596252 0.567535 0.511688
0.599304 0.573120 0.515594
0.725952 0.758636 0.661621
0.723389 0.754761 0.657745
0.726654 0.760620 0.662537
0.725159 0.758179 0.660522
0.725159 0.758179 0.660522
0.719421 0.748535 0.652618
0.721008 0.751007 0.654663
0.721161 0.752014 0.655487
0.719757 0.749756 0.654236
0.720947 0.752228 0.656891
0.720123 0.751038 0.655853
0.727875 0.763794 0.668213
0.726318 0.760651 0.666199
0.723785 0.755981 0.662384
0.722046 0.754028 0.659515
0.729004 0.765533 0.670807
0.724792 0.758240 0.664215
0.723999 0.756958 0.663177
0.700470 0.719421 0.632874
0.662567 0.664154 0.586304
0.617645 0.602844 0.533508
0.618866 0.604156 0.534393
0.614685 0.597504 0.529602
0.618195 0.602997 0.533630
0.618744 0.603241 0.533844
0.617493 0.601318 0.532990
0.618042 0.602203 0.533142
0.621857 0.608582 0.537659
0.616608 0.599915 0.531250
0.618622 0.603088 0.533295
0.614410 0.595764 0.528625
0.614563 0.596680 0.529114
0.610474 0.590210 0.524994
0.724243 0.755951 0.661713
0.726776 0.759888 0.665588
0.722473 0.754028 0.658936
0.723114 0.754303 0.659149
0.715576 0.741608 0.648102
0.718658 0.747253 0.651581
0.719421 0.747742 0.652618
0.711365 0.735077 0.642181
0.710480 0.733704 0.640778
0.710480 0.733704 0.640778
0.695770 0.709717 0.622101
0.675018 0.679382 0.596954
0.641235 0.632904 0.554749
0.626282 0.613007 0.539063
0.615204 0.596405 0.527344
0.612579 0.593658 0.525116
0.605499 0.581726 0.517029
0.607544 0.584961 0.519104
0.608368 0.586273 0.520355
0.604095 0.580200 0.515564
0.600616 0.574646 0.512024
0.596405 0.567322 0.507751
0.594421 0.564758 0.506134
0.593109 0.563477 0.505188
0.588593 0.555481 0.499786
0.590729 0.558899 0.501953
0.596649 0.568359 0.508850
0.592255 0.561310 0.503967
0.592987 0.562561 0.504700
0.589996 0.557068 0.501251
0.588593 0.554779 0.499786
0.590271 0.558167 0.502319
0.589569 0.557068 0.501587
0.582703 0.546906 0.493439
0.580383 0.543213 0.490631
0.582703 0.546906 0.493439
0.583527 0.548584 0.494690
0.579041 0.542511 0.489716
0.579773 0.543549 0.490448
0.577454 0.540466 0.487732
0.574371 0.535675 0.484161
0.576019 0.538422 0.486237
0.575836 0.538239 0.485657
0.576691 0.539429 0.486969
0.575134 0.536682 0.484894
0.576111 0.539154 0.486755
0.580505 0.544464 0.491211
0.578430 0.541718 0.489532
0.577576 0.540588 0.488251
0.573761 0.535522 0.484039
0.580627 0.544678 0.491791
0.579041 0.542023 0.489716
0.576813 0.539612 0.487518
0.576965 0.539825 0.488068
0.574493 0.536469 0.484741
0.574799 0.536865 0.485840
0.576263 0.539398 0.487335
0.573029 0.534485 0.483215
0.578583 0.541931 0.490112
0.576263 0.538849 0.487335
0.575226 0.537384 0.485474
0.577576 0.541107 0.488251
0.576691 0.539429 0.486969
0.581360 0.546173 0.492493
0.581360 0.546173 0.492493
0.580383 0.544281 0.490631
0.574371 0.535675 0.484161
0.573517 0.534515 0.482880
0.578766 0.541626 0.488617
0.582428 0.546417 0.492279
0.583160 0.547455 0.493011
0.584595 0.549347 0.494476
0.587463 0.553772 0.497406
0.585205 0.550171 0.494690
0.591187 0.560455 0.501587
0.586639 0.553131 0.496094
0.589752 0.558105 0.500122
0.591187 0.560455 0.501587
0.590363 0.559021 0.500336
0.590363 0.559021 0.500336
0.592468 0.562469 0.502472
0.592590 0.563385 0.503052
0.589539 0.557770 0.499054
0.593445 0.564728 0.504303
0.590363 0.559784 0.500336
0.593231 0.564331 0.503235
0.588654 0.556396 0.497772
0.596832 0.570099 0.507324
0.593903 0.564758 0.503967
0.595917 0.567963 0.505585
0.595306 0.567657 0.505371
0.595306 0.567657 0.505371
0.597473 0.571136 0.507538
0.600281 0.575500 0.510437
0.597198 0.570007 0.506500
0.600281 0.575500 0.510437
0.598846 0.573303 0.508972
0.601654 0.577667 0.511841
0.598724 0.572418 0.508453
0.571136 0.531860 0.480042
0.575684 0.538055 0.485107
0.574799 0.536804 0.483795
0.575562 0.537842 0.484528
0.577942 0.541534 0.487335
0.573975 0.535675 0.482513
0.577942 0.541534 0.487335
0.577209 0.540527 0.486572
0.578491 0.541718 0.487457
0.583008 0.547760 0.492462
0.582184 0.546600 0.491180
0.583618 0.548584 0.492676
0.583740 0.548706 0.493195
0.580841 0.545441 0.490265
0.585297 0.551056 0.495209
0.583008 0.548309 0.492462
0.582336 0.546814 0.491791
0.583893 0.548920 0.493774
0.582428 0.546936 0.492279
0.585999 0.552185 0.495972
0.585297 0.551788 0.495209
0.589050 0.557648 0.499451
0.586639 0.553864 0.496094
0.586517 0.552948 0.495575
0.591034 0.560883 0.501038
0.593903 0.565460 0.503967
0.597595 0.571259 0.508057
0.593903 0.565460 0.503967
0.597321 0.570190 0.507019
0.594513 0.565704 0.504120
0.594604 0.566528 0.504639
0.596039 0.568787 0.506104
0.593781 0.564545 0.503418
0.582886 0.548126 0.491974
0.584198 0.550049 0.492798
0.585693 0.551636 0.494324
0.584198 0.549347 0.492798
0.587097 0.554657 0.495758
0.588654 0.556396 0.497772
0.587006 0.553772 0.495209
0.593781 0.564545 0.503418
0.590668 0.559631 0.499390
0.592194 0.562836 0.501373
0.595184 0.566803 0.504852
0.596558 0.569061 0.506287
0.595917 0.567963 0.505585
0.595184 0.566803 0.504852
0.592926 0.563171 0.502106
0.598114 0.571472 0.508240
0.597198 0.569305 0.506500
0.601654 0.576355 0.511841
0.607269 0.585266 0.518066
0.606506 0.584076 0.516815
0.608032 0.586456 0.518799
0.608704 0.587524 0.519470
0.609283 0.588440 0.519623
0.612213 0.593109 0.523499
0.610687 0.589996 0.521545
0.609375 0.588593 0.520172
0.607910 0.585480 0.518188
0.606506 0.583344 0.516815
0.609467 0.588776 0.520721
0.609619 0.588959 0.521240
0.606049 0.583252 0.517181
0.608246 0.586731 0.519836
0.601776 0.576538 0.512390
0.709045 0.730103 0.633972
0.708954 0.729004 0.633331
0.707153 0.725555 0.630432
0.707306 0.726501 0.631073
0.704803 0.722626 0.627960
0.708008 0.727631 0.631897
0.703156 0.720001 0.625671
0.702240 0.718536 0.624146
0.701477 0.717316 0.623322
0.698883 0.713226 0.619568
0.700409 0.716461 0.621246
0.696259 0.709167 0.615723
0.692322 0.702911 0.611572
0.686371 0.692993 0.603607
0.684784 0.690948 0.601929
0.680603 0.685364 0.596954
0.680328 0.684326 0.595642
0.679535 0.683197 0.594757
0.678711 0.682800 0.593933
0.676147 0.679291 0.590637
0.676147 0.679291 0.590637
0.669983 0.670441 0.582581
0.674377 0.676910 0.588257
0.669983 0.670441 0.582581
0.669983 0.670441 0.582581
0.669189 0.669952 0.581696
0.666687 0.666595 0.579010
0.666687 0.666595 0.579010
0.671753 0.673462 0.584961
0.671082 0.673126 0.584717
0.665894 0.666168 0.578156
0.668457 0.669708 0.581482
0.667664 0.668671 0.580597
0.698975 0.712646 0.617218
0.697266 0.709259 0.614899
0.700653 0.715363 0.619568
0.699585 0.713623 0.617401
0.698029 0.710358 0.615723
0.700378 0.714081 0.618286
0.695557 0.707275 0.612549
0.694611 0.704987 0.611053
0.697113 0.709808 0.614227
0.695557 0.707275 0.612549
0.693024 0.703308 0.609375
0.691345 0.699829 0.607025
0.693024 0.703308 0.609375
0.691345 0.700592 0.607025
0.693878 0.704559 0.610229
0.692139 0.701904 0.607910
0.690552 0.699402 0.606171
0.692139 0.701904 0.607910
0.692291 0.702087 0.608521
0.688965 0.696899 0.604462
0.688965 0.696899 0.604462
0.693024 0.703308 0.609375
0.690063 0.699341 0.606598
0.688171 0.695587 0.603607
0.688324 0.695801 0.604248
0.684204 0.690125 0.599304
0.686737 0.693451 0.602570
0.683533 0.689850 0.599121
0.673981 0.677704 0.589355
0.655060 0.653168 0.569763
0.645844 0.641632 0.560608
0.633148 0.624054 0.545532
0.623383 0.609802 0.535278
0.684784 0.692108 0.601929
0.665405 0.667542 0.581696
0.667053 0.669708 0.583435
0.667694 0.670593 0.583618
0.689789 0.698151 0.605347
0.689636 0.697937 0.604675
0.686493 0.693085 0.601257
0.688843 0.696686 0.603821
0.684601 0.690552 0.598267
0.681244 0.685364 0.594116
0.686340 0.692810 0.600616
0.678009 0.681732 0.590637
0.685364 0.691620 0.599121
0.683655 0.688660 0.596680
0.682678 0.687378 0.595215
0.684479 0.690308 0.597565
0.685211 0.691376 0.598419
0.685516 0.692444 0.599731
0.686981 0.693695 0.600800
0.682068 0.687134 0.595001
0.682983 0.688385 0.596466
0.681244 0.685974 0.594116
0.677185 0.680634 0.589752
0.660858 0.659546 0.572845
0.621429 0.607208 0.532715
0.607178 0.585114 0.517487
0.604309 0.580566 0.514130
0.600739 0.574829 0.510071
0.601532 0.576172 0.511292
0.598572 0.571533 0.507874
0.601257 0.575714 0.510223
0.595764 0.567719 0.505005
0.596497 0.568207 0.505737
0.619324 0.604309 0.529602
0.623016 0.609283 0.533722
0.621155 0.606842 0.531616
0.617340 0.601135 0.527527
0.620453 0.606476 0.531403
0.614716 0.597687 0.525269
0.613251 0.594757 0.523346
0.614014 0.596619 0.524567
0.614166 0.596863 0.525116
0.612640 0.594513 0.523132
0.614838 0.597290 0.525818
0.614166 0.596863 0.525116
0.612030 0.593445 0.522461
0.616913 0.600464 0.527924
0.611420 0.592529 0.522308
0.612213 0.593109 0.523499
0.608704 0.588226 0.519470
0.603149 0.579346 0.513763
0.604523 0.581635 0.515198
0.610199 0.590607 0.521393
0.603729 0.579651 0.513977
0.607422 0.586182 0.518616
0.604401 0.580750 0.514679
0.605286 0.582062 0.515930
