Assets/Packages/PostProcessing/Textures/Cubes/loot.cube
#Created by: Adobe Photoshop Export Color Lookup Plugin
TITLE "loot"
#LUT size
LUT_3D_SIZE 9
#data domain
DOMAIN_MIN 0.0 0.0 0.0
DOMAIN_MAX 1.0 1.0 1.0
#LUT data points
0.759338 0.803345 0.710663
0.744690 0.787018 0.697174
0.743103 0.784973 0.696594
0.741302 0.784058 0.695343
0.730042 0.766327 0.678558
0.736969 0.776825 0.688843
0.732910 0.772858 0.686737
0.728027 0.763153 0.674164
0.732391 0.770691 0.681519
0.709869 0.732666 0.643433
0.699188 0.715790 0.629578
0.704926 0.724823 0.636627
0.695801 0.710449 0.625061
0.698273 0.714355 0.628082
0.690704 0.701630 0.618103
0.686340 0.695160 0.611908
0.680420 0.687256 0.604675
0.678131 0.684235 0.602722
0.761353 0.807526 0.713409
0.764160 0.812714 0.719971
0.770050 0.821259 0.727570
0.767914 0.817657 0.724060
0.761963 0.810486 0.716461
0.751587 0.795959 0.701660
0.745209 0.786743 0.692291
0.727448 0.761627 0.668823
0.722656 0.753479 0.659729
0.733643 0.769775 0.673096
0.727051 0.760376 0.664215
0.724518 0.756500 0.660339
0.720245 0.748993 0.653625
0.721802 0.752228 0.655701
0.715057 0.740845 0.645660
0.709991 0.732178 0.638275
0.648132 0.642029 0.561951
0.622253 0.607758 0.536377
0.675446 0.680634 0.598877
0.670258 0.672394 0.592407
0.664368 0.665161 0.585663
0.657318 0.655853 0.577301
0.646912 0.641235 0.565338
0.628296 0.617188 0.544983
0.618866 0.604095 0.536774
0.605713 0.582520 0.522522
0.599304 0.573120 0.515594
0.574371 0.535675 0.484161
0.583160 0.547455 0.493011
0.591187 0.560455 0.501587
0.590363 0.559021 0.500336
0.589539 0.557770 0.499054
0.588654 0.556396 0.497772
0.595306 0.567657 0.505371
0.597198 0.570007 0.506500
0.598724 0.572418 0.508453
0.698975 0.712646 0.617218
0.698029 0.710358 0.615723
0.697113 0.709808 0.614227
0.693024 0.703308 0.609375
0.690552 0.699402 0.606171
0.688965 0.696899 0.604462
0.688324 0.695801 0.604248
0.673981 0.677704 0.589355
0.623383 0.609802 0.535278
0.629883 0.623108 0.558136
0.624451 0.617188 0.554504
0.620087 0.610321 0.551300
0.613831 0.600464 0.544281
0.602112 0.582062 0.532593
0.597321 0.575806 0.530640
0.592377 0.567322 0.525787
0.601959 0.583099 0.536804
0.598694 0.579346 0.534393
0.564270 0.538849 0.567780
0.611481 0.604675 0.616577
0.559631 0.539154 0.590576
0.635620 0.647705 0.676910
0.591858 0.592072 0.662506
0.613617 0.644012 0.710480
0.614441 0.645142 0.741821
0.603821 0.664581 0.783783
0.676239 0.751648 0.869598
0.750031 0.792511 0.701111
0.738251 0.776276 0.687866
0.742126 0.781342 0.691986
0.727844 0.761444 0.673370
0.727509 0.763153 0.674774
0.723694 0.757263 0.667603
0.729675 0.765076 0.673981
0.724091 0.757721 0.669189
0.728180 0.764954 0.677948
0.710358 0.734985 0.645813
0.706665 0.728363 0.639496
0.706818 0.729340 0.640137
0.704132 0.724365 0.635803
0.700195 0.718231 0.631592
0.692383 0.705109 0.620361
0.685760 0.695038 0.612335
0.678009 0.683990 0.602081
0.678253 0.684448 0.603394
0.761353 0.807526 0.713409
0.765259 0.811920 0.718353
0.769409 0.818176 0.724609
0.769745 0.820068 0.726074
0.773438 0.825012 0.730133
0.763977 0.813202 0.719208
0.757874 0.805054 0.710876
0.745544 0.787201 0.693817
0.727295 0.761353 0.668060
0.742310 0.782013 0.685577
0.737915 0.775452 0.678925
0.734009 0.771027 0.674683
0.729736 0.764526 0.668823
0.724182 0.755219 0.658691
0.718506 0.747009 0.650818
0.697876 0.712372 0.623322
0.632446 0.620514 0.545288
0.624939 0.611237 0.539124
0.668579 0.671448 0.590668
0.664215 0.664337 0.584991
0.663177 0.662933 0.583435
0.656372 0.653900 0.575745
0.644165 0.637604 0.561951
0.627319 0.614624 0.543762
0.613251 0.594513 0.530212
0.599884 0.574005 0.515808
0.592041 0.562225 0.507416
0.572174 0.532715 0.481934
0.583160 0.547455 0.493011
0.590454 0.559235 0.500854
0.590210 0.558868 0.499756
0.589539 0.557770 0.499054
0.590363 0.559784 0.500336
0.596832 0.570099 0.507324
0.597473 0.571136 0.507538
0.594513 0.566406 0.504120
0.695679 0.706665 0.613159
0.695679 0.707428 0.613159
0.698029 0.711182 0.615723
0.693878 0.704559 0.610229
0.688965 0.696899 0.604462
0.688171 0.695587 0.603607
0.683411 0.689636 0.598419
0.640350 0.632202 0.550659
0.618225 0.601868 0.529327
0.628571 0.621429 0.558319
0.622192 0.613617 0.553833
0.615387 0.602966 0.546692
0.615265 0.602783 0.548553
0.604858 0.587097 0.537720
0.601166 0.581879 0.535645
0.598022 0.576843 0.533722
0.599640 0.579437 0.536133
0.601898 0.584229 0.541260
0.570435 0.540192 0.565643
0.560760 0.548920 0.588562
0.597809 0.567657 0.606293
0.540863 0.537781 0.612213
0.616608 0.618439 0.669708
0.550842 0.565491 0.668091
0.565643 0.629517 0.726074
0.608063 0.662537 0.783722
0.666656 0.748199 0.870117
0.742310 0.780151 0.692719
0.741669 0.783844 0.696838
0.737762 0.779510 0.692657
0.729614 0.766998 0.679108
0.721252 0.753326 0.666748
0.721558 0.754425 0.668304
0.720581 0.753784 0.666504
0.717010 0.745270 0.657867
0.724518 0.756989 0.668610
0.708771 0.731628 0.643616
0.705505 0.726501 0.639679
0.705139 0.725159 0.637848
0.702545 0.721130 0.634125
0.700867 0.718506 0.631866
0.695404 0.710602 0.626038
0.689514 0.701324 0.618286
0.686829 0.697113 0.614502
0.682190 0.690979 0.610016
0.768829 0.816650 0.721558
0.770966 0.820221 0.725098
0.774658 0.825104 0.729126
0.777252 0.829285 0.734833
0.777679 0.831329 0.737000
0.773712 0.826111 0.731598
0.771454 0.821655 0.727356
0.751770 0.796204 0.702423
0.745392 0.786926 0.693054
0.744415 0.784790 0.688446
0.740051 0.778290 0.681854
0.737915 0.774658 0.678925
0.729401 0.764130 0.667236
0.722443 0.751740 0.655853
0.697388 0.711456 0.623779
0.639526 0.630554 0.552948
0.627380 0.614532 0.540894
0.621399 0.606567 0.535614
0.665466 0.667328 0.587830
0.657471 0.655396 0.577972
0.657196 0.654999 0.576660
0.653687 0.650269 0.572418
0.643158 0.635620 0.560364
0.631683 0.620300 0.547913
0.616608 0.600525 0.533630
0.605560 0.583008 0.521973
0.598236 0.571472 0.513306
0.573639 0.535248 0.483398
0.585297 0.551056 0.495209
0.593903 0.564056 0.503967
0.593231 0.562958 0.503235
0.587250 0.554108 0.496307
0.590363 0.559021 0.500336
0.590210 0.559601 0.499756
0.602478 0.579010 0.513062
0.597473 0.571136 0.507538
0.695557 0.707275 0.612549
0.695404 0.706268 0.611908
0.693024 0.702576 0.609375
0.693024 0.703308 0.609375
0.688019 0.695404 0.602966
0.687134 0.693909 0.601471
0.683289 0.688843 0.597809
0.618805 0.602844 0.529480
0.616180 0.599335 0.527222
0.632813 0.628387 0.565216
0.620697 0.611206 0.553986
0.616852 0.605103 0.550903
0.617340 0.606476 0.552948
0.610748 0.596863 0.547119
0.605225 0.587494 0.541656
0.602509 0.584503 0.541443
0.605438 0.590485 0.547363
0.606598 0.592285 0.550232
0.497437 0.460907 0.529449
0.484894 0.438568 0.532684
0.493011 0.458221 0.552094
0.532776 0.515778 0.592896
0.520905 0.512665 0.616180
0.533020 0.537567 0.649658
0.554047 0.574768 0.694702
0.567047 0.610229 0.751373
0.603546 0.680573 0.820374
0.740662 0.783508 0.699371
0.746796 0.791534 0.707153
0.746429 0.792511 0.705597
0.726318 0.761902 0.677307
0.723633 0.758514 0.672668
0.723145 0.756226 0.670349
0.721832 0.754303 0.667023
0.721222 0.751770 0.663727
0.721222 0.751770 0.663727
0.712708 0.737823 0.648285
0.710236 0.734741 0.645264
0.709198 0.732452 0.643158
0.703186 0.722137 0.634308
0.701660 0.719788 0.632690
0.695679 0.710999 0.627289
0.695923 0.712250 0.628479
0.692413 0.705902 0.623322
0.693756 0.708710 0.626648
0.774658 0.825104 0.729126
0.772675 0.821014 0.726379
0.776642 0.828430 0.731873
0.778900 0.831512 0.736115
0.781311 0.835510 0.741028
0.777405 0.829559 0.735596
0.775574 0.827850 0.733582
0.758057 0.804657 0.711639
0.751770 0.795471 0.702423
0.742493 0.782257 0.686310
0.738068 0.775665 0.679749
0.729736 0.764526 0.668823
0.712677 0.735565 0.642639
0.715973 0.742310 0.647095
0.646851 0.639771 0.562164
0.643158 0.635437 0.557251
0.630188 0.618134 0.544128
0.620422 0.604584 0.534363
0.760254 0.806519 0.708130
0.680267 0.686432 0.604034
0.657196 0.654999 0.576660
0.650177 0.645569 0.568176
0.636780 0.627075 0.552673
0.628906 0.617310 0.544678
0.615570 0.598236 0.531403
0.615356 0.599243 0.532806
0.629517 0.619476 0.547272
0.571411 0.532318 0.481201
0.583160 0.547455 0.493011
0.588104 0.554779 0.497620
0.594604 0.565887 0.504639
0.587952 0.555298 0.497040
0.591644 0.561188 0.501251
0.592377 0.562317 0.501953
0.595764 0.567719 0.505005
0.600281 0.575500 0.510437
0.700256 0.713898 0.617676
0.691467 0.700867 0.607666
0.689636 0.697144 0.604675
0.689636 0.697937 0.604675
0.683136 0.689209 0.597137
0.681549 0.687073 0.595428
0.683289 0.688843 0.597809
0.621277 0.606903 0.532166
0.618225 0.602570 0.529327
0.626160 0.619812 0.560059
0.620605 0.611633 0.555817
0.615479 0.604279 0.551727
0.616638 0.606079 0.554626
0.613037 0.600464 0.552856
0.609467 0.596161 0.551056
0.605621 0.590759 0.548065
0.605286 0.590118 0.549164
0.602112 0.585876 0.546997
0.511108 0.467163 0.527954
0.503845 0.458466 0.527222
0.507813 0.473267 0.557953
0.494690 0.444061 0.557709
0.537689 0.503876 0.601379
0.588043 0.568115 0.657196
0.615631 0.619019 0.708252
0.565552 0.595398 0.732544
0.605988 0.680145 0.807495
0.766907 0.818146 0.733337
0.765045 0.817078 0.731354
0.754761 0.803436 0.716827
0.742493 0.785767 0.700684
0.732910 0.775757 0.692505
0.722870 0.757965 0.674652
0.724945 0.760468 0.676056
0.719666 0.751556 0.664764
0.728851 0.765869 0.678101
0.711029 0.735168 0.646088
0.708771 0.731628 0.643616
0.706055 0.727356 0.639343
0.700867 0.718506 0.631866
0.701294 0.719879 0.633698
0.697662 0.714905 0.630798
0.705444 0.727875 0.641968
0.700287 0.720520 0.637421
0.703491 0.724823 0.641296
0.770966 0.820923 0.725098
0.768829 0.817352 0.721558
0.774506 0.824188 0.728394
0.776489 0.826843 0.731140
0.777405 0.830231 0.735596
0.777405 0.830231 0.735596
0.777527 0.831116 0.736328
0.767761 0.817474 0.723328
0.753967 0.798462 0.705994
0.659882 0.658569 0.579956
0.655518 0.652771 0.574890
0.656921 0.653320 0.575348
0.653229 0.648376 0.570435
0.644440 0.636566 0.560181
0.640015 0.630615 0.554993
0.630859 0.618439 0.544312
0.629425 0.617889 0.543854
0.622345 0.607880 0.536896
0.760406 0.806763 0.708923
0.754608 0.799774 0.701965
0.746185 0.787170 0.689789
0.710236 0.734070 0.642426
0.675018 0.680145 0.599976
0.669342 0.672485 0.593933
0.685913 0.695221 0.612976
0.713165 0.737915 0.645081
0.708984 0.731293 0.639130
0.574646 0.536652 0.485321
0.580261 0.544067 0.490112
0.585999 0.552887 0.495972
0.590881 0.559967 0.500488
0.589630 0.558685 0.499603
0.588806 0.556610 0.498352
0.593903 0.564758 0.503967
0.600983 0.575867 0.511108
0.603149 0.580109 0.513763
0.692902 0.702362 0.608734
0.689789 0.697327 0.605347
0.683929 0.689056 0.598022
0.681396 0.686249 0.594757
0.682159 0.687286 0.595642
0.682312 0.688049 0.596252
0.684906 0.691528 0.599548
0.619446 0.604492 0.530151
0.612518 0.593658 0.522644
0.632538 0.629639 0.570038
0.624725 0.618103 0.562683
0.620911 0.612030 0.559631
0.612518 0.600189 0.552673
0.609680 0.596405 0.551788
0.609375 0.595917 0.553009
0.604431 0.589478 0.550201
0.604004 0.588837 0.550659
0.606110 0.592712 0.555023
0.526062 0.508362 0.543793
0.511627 0.479919 0.542053
0.530823 0.468323 0.550018
0.540192 0.517090 0.585449
0.629181 0.632507 0.665955
0.590851 0.592743 0.667358
0.599274 0.631042 0.715576
0.626099 0.657013 0.752625
0.608490 0.648224 0.783112
0.783417 0.840515 0.751129
0.776428 0.832825 0.744781
0.769592 0.826111 0.739746
0.757690 0.808167 0.724060
0.752655 0.800690 0.714020
0.734467 0.776031 0.691589
0.740204 0.782745 0.697113
0.720734 0.753326 0.667328
0.725037 0.759186 0.670959
0.705933 0.726410 0.638702
0.705933 0.726410 0.638702
0.702698 0.722076 0.634766
0.702820 0.722321 0.635406
0.705658 0.726715 0.640320
0.708771 0.733093 0.646454
0.720734 0.753326 0.667328
0.716614 0.745270 0.658478
0.709686 0.735199 0.650940
0.770508 0.818878 0.722900
0.772522 0.821533 0.725647
0.776184 0.825653 0.729614
0.774658 0.825806 0.729126
0.771576 0.822510 0.728088
0.769562 0.819885 0.725372
0.763824 0.812286 0.718506
0.763824 0.812286 0.718506
0.749878 0.793671 0.700348
0.642029 0.634216 0.561279
0.642609 0.634949 0.560852
0.641418 0.632690 0.558563
0.645721 0.638397 0.563080
0.635773 0.625031 0.551056
0.630493 0.618713 0.545654
0.622467 0.607391 0.537384
0.620667 0.604950 0.535400
0.626770 0.613739 0.541138
0.758240 0.804535 0.705322
0.750305 0.793396 0.695465
0.742645 0.783966 0.687164
0.740540 0.780365 0.684204
0.734314 0.771484 0.676270
0.732544 0.769073 0.674927
0.675171 0.680939 0.600616
0.619080 0.604462 0.535400
0.611511 0.593140 0.527222
0.572021 0.532501 0.481384
0.578766 0.542694 0.488617
0.580841 0.545441 0.490265
0.585754 0.551788 0.494843
0.588104 0.555481 0.497620
0.588226 0.555664 0.498169
0.595459 0.567871 0.505920
0.598999 0.574158 0.509521
0.596558 0.569702 0.506287
0.695557 0.707275 0.612549
0.688019 0.694550 0.602966
0.686340 0.692291 0.600616
0.680420 0.684967 0.593262
0.679749 0.684052 0.593018
0.683929 0.689667 0.598022
0.677460 0.681030 0.591034
0.613251 0.594757 0.523346
0.613342 0.594879 0.523865
0.628571 0.624420 0.567566
0.623749 0.617188 0.562988
0.623199 0.616913 0.565216
0.615234 0.604492 0.557861
0.607513 0.593658 0.551727
0.604370 0.590668 0.552032
0.601227 0.585114 0.550415
0.605927 0.593109 0.556824
0.607239 0.595764 0.560303
0.503571 0.474731 0.528748
0.612244 0.609650 0.602600
0.598175 0.572113 0.599243
0.558075 0.548187 0.599823
0.584839 0.573059 0.629059
0.602051 0.590881 0.661530
0.606659 0.629639 0.700104
0.608368 0.625092 0.730713
0.606049 0.649445 0.776855
0.794647 0.859100 0.772156
0.783020 0.843079 0.756317
0.784119 0.843628 0.754700
0.774139 0.829010 0.740570
0.762573 0.813080 0.726379
0.744843 0.791138 0.705017
0.748077 0.793854 0.706116
0.731018 0.770020 0.683228
0.724365 0.758240 0.670776
0.703461 0.722534 0.635620
0.706451 0.728729 0.641113
0.709900 0.734100 0.646240
0.708374 0.732513 0.644653
0.709534 0.734192 0.647247
0.724884 0.760376 0.673096
0.727112 0.763794 0.678284
0.729004 0.767517 0.681824
0.716461 0.745789 0.660675
0.766632 0.815063 0.718048
0.772675 0.822479 0.726379
0.772675 0.821716 0.726379
0.776489 0.828186 0.731140
0.777069 0.828430 0.734100
0.767548 0.816528 0.722565
0.763550 0.811127 0.717010
0.752258 0.797699 0.704712
0.745544 0.787201 0.693817
0.646088 0.640930 0.567535
0.635803 0.626526 0.554260
0.634613 0.624268 0.552032
0.632751 0.621796 0.549561
0.626373 0.613342 0.542419
0.621033 0.606140 0.536926
0.619568 0.603180 0.535065
0.623596 0.609558 0.539215
0.626129 0.612244 0.541412
0.741974 0.781525 0.683990
0.735962 0.773590 0.676819
0.726624 0.760468 0.664795
0.727753 0.762939 0.667389
0.727539 0.761902 0.666595
0.621857 0.607269 0.537659
0.612610 0.593658 0.527557
0.611237 0.591461 0.526154
0.605499 0.582397 0.519470
0.577454 0.540924 0.487732
0.577057 0.540436 0.486023
0.582336 0.547424 0.491791
0.580688 0.544647 0.489685
0.581573 0.546387 0.491028
0.590363 0.559021 0.500336
0.595306 0.566986 0.505371
0.596039 0.568787 0.506104
0.598846 0.573303 0.508972
0.693726 0.704346 0.609589
0.684753 0.690765 0.598877
0.686981 0.693085 0.600800
0.682831 0.688141 0.595886
0.681396 0.686798 0.594757
0.684601 0.689941 0.598267
0.664520 0.665039 0.577759
0.612518 0.593658 0.522644
0.609131 0.588226 0.519104
0.633850 0.632202 0.575958
0.630737 0.628204 0.574341
0.629425 0.626556 0.574554
0.624512 0.619507 0.571136
0.616058 0.606903 0.563660
0.603119 0.588776 0.554108
0.599915 0.583710 0.551880
0.608276 0.597382 0.562439
0.614471 0.607056 0.571075
0.519806 0.463501 0.512634
0.558960 0.528687 0.566162
0.560333 0.550201 0.586884
0.590210 0.531281 0.589355
0.611603 0.594879 0.635834
0.622955 0.630951 0.676544
0.605621 0.622589 0.691345
0.622009 0.639618 0.723969
0.580383 0.613007 0.743103
0.811188 0.877258 0.786530
0.800964 0.864624 0.776093
0.796295 0.856995 0.766846
0.781281 0.837769 0.747742
0.762268 0.812622 0.724915
0.751099 0.799408 0.713501
0.737122 0.777771 0.689606
0.736298 0.775208 0.685730
0.725128 0.757904 0.668762
0.706665 0.727631 0.639496
0.712036 0.736755 0.648071
0.715271 0.743225 0.654999
0.721527 0.753754 0.665344
0.725220 0.759430 0.671783
0.735443 0.776398 0.689026
0.736115 0.778046 0.692139
0.725922 0.761902 0.677887
0.721283 0.754028 0.669708
0.772675 0.823761 0.726379
0.768829 0.816650 0.721558
0.770966 0.820923 0.725098
0.776642 0.828430 0.731873
0.777405 0.830231 0.735596
0.767914 0.817657 0.724060
0.765717 0.814026 0.720520
0.761841 0.809662 0.715729
0.743744 0.785583 0.692535
0.643188 0.635773 0.563507
0.638580 0.629608 0.557709
0.628601 0.616333 0.546356
0.625854 0.612640 0.543274
0.622101 0.606995 0.538757
0.619781 0.604187 0.536133
0.619659 0.603333 0.535583
0.619659 0.603333 0.535583
0.616058 0.597687 0.531067
0.735474 0.772858 0.674469
0.726257 0.759888 0.663177
0.723877 0.756165 0.660156
0.721680 0.753479 0.657898
0.726318 0.760651 0.666199
0.620209 0.605560 0.535706
0.615326 0.597900 0.530304
0.612518 0.593445 0.527039
0.613159 0.594452 0.527710
0.572754 0.534607 0.482117
0.571747 0.533264 0.480255
0.581482 0.545715 0.490448
0.582184 0.547211 0.491180
0.581482 0.545715 0.490448
0.584503 0.549744 0.493958
0.593903 0.565460 0.503967
0.596832 0.570099 0.507324
0.597595 0.571259 0.508057
0.696320 0.709351 0.613373
0.688171 0.695587 0.603607
0.685364 0.691010 0.599121
0.683777 0.689484 0.597351
0.681061 0.685181 0.593445
0.684753 0.690765 0.598877
0.630890 0.620300 0.541443
0.605591 0.582611 0.515045
0.602203 0.577271 0.512024
0.632629 0.630737 0.576782
0.634277 0.633698 0.580933
0.631012 0.629425 0.578705
0.626221 0.622803 0.576569
0.621735 0.615784 0.572754
0.626099 0.623169 0.580688
0.616180 0.606293 0.569153
0.613739 0.606476 0.572632
0.614197 0.607880 0.574585
0.575043 0.532349 0.541718
0.547028 0.516571 0.558502
0.620148 0.590668 0.603943
0.632904 0.629272 0.636169
0.620728 0.615387 0.644104
0.608917 0.614929 0.658630
0.637390 0.649658 0.696075
0.656799 0.684967 0.733398
0.649292 0.682068 0.758362
0.812836 0.881561 0.787933
0.806244 0.869568 0.775330
0.792053 0.850586 0.759430
0.780090 0.837585 0.748688
0.769714 0.821655 0.732941
0.757721 0.805115 0.717102
0.733063 0.771698 0.684631
0.723297 0.755035 0.668152
0.722595 0.754028 0.664948
0.708862 0.731079 0.641327
0.708496 0.730377 0.642426
0.720245 0.750305 0.661987
0.729095 0.764862 0.676727
0.730194 0.767273 0.679291
0.732605 0.772400 0.685211
0.735962 0.777832 0.691345
0.730286 0.769440 0.685181
0.727020 0.765137 0.680450
0.766785 0.815308 0.718842
0.764648 0.810394 0.715302
0.764801 0.811249 0.716064
0.771454 0.821655 0.727356
0.771576 0.822510 0.728088
0.765381 0.812897 0.719025
0.761841 0.808899 0.715729
0.756226 0.802826 0.709564
0.737793 0.777771 0.685516
0.650787 0.647217 0.574005
0.636261 0.627167 0.556335
0.629639 0.617706 0.547913
0.621460 0.606873 0.539063
0.619324 0.603455 0.536407
0.619232 0.603333 0.535919
0.618408 0.601349 0.534729
0.615570 0.597595 0.531403
0.614258 0.595490 0.530029
0.726868 0.760895 0.663422
0.719421 0.749298 0.652618
0.721344 0.752228 0.656281
0.723785 0.757507 0.662384
0.724915 0.759186 0.664978
0.618317 0.603241 0.534241
0.620209 0.606262 0.535706
0.618744 0.603241 0.533844
0.613159 0.594452 0.527710
0.575836 0.538818 0.485657
0.574951 0.537567 0.484314
0.580688 0.544647 0.489685
0.585205 0.551636 0.494690
0.582886 0.547638 0.491974
0.585205 0.550873 0.494690
0.590210 0.559601 0.499756
0.595306 0.567657 0.505371
0.597717 0.572174 0.508667
0.695404 0.707031 0.611908
0.689789 0.698151 0.605347
0.683136 0.688599 0.597137
0.681244 0.685364 0.594116
0.680267 0.684692 0.592560
0.684601 0.690552 0.598267
0.619568 0.604675 0.530670
0.602081 0.576355 0.511444
0.593658 0.563629 0.502838
0.632904 0.630463 0.578125
0.639282 0.641022 0.588531
0.633911 0.634003 0.585571
0.625092 0.622375 0.578613
0.629333 0.628754 0.585907
0.628326 0.627930 0.586212
0.630829 0.633057 0.592865
0.628174 0.628296 0.590302
0.628479 0.628632 0.591553
0.638092 0.602783 0.579742
0.466187 0.419128 0.497009
0.635193 0.613251 0.610504
0.578583 0.602753 0.617493
0.608185 0.569611 0.620270
0.606842 0.602875 0.645599
0.633240 0.644073 0.688873
0.599792 0.647339 0.712372
0.668457 0.723236 0.776611
