Assets/Packages/PostProcessing/Textures/Cubes/loot.cube
#Created by: Adobe Photoshop Export Color Lookup Plugin
TITLE "loot"
#LUT size
LUT_3D_SIZE 5
#data domain
DOMAIN_MIN 0.0 0.0 0.0
DOMAIN_MAX 1.0 1.0 1.0
#LUT data points
0.759338 0.803345 0.710663
0.743103 0.784973 0.696594
0.730042 0.766327 0.678558
0.732910 0.772858 0.686737
0.732391 0.770691 0.681519
0.761353 0.807526 0.713409
0.770050 0.821259 0.727570
0.761963 0.810486 0.716461
0.745209 0.786743 0.692291
0.722656 0.753479 0.659729
0.675446 0.680634 0.598877
0.664368 0.665161 0.585663
0.646912 0.641235 0.565338
0.618866 0.604095 0.536774
0.599304 0.573120 0.515594
0.698975 0.712646 0.617218
0.697113 0.709808 0.614227
0.690552 0.699402 0.606171
0.688324 0.695801 0.604248
0.623383 0.609802 0.535278
0.564270 0.538849 0.567780
0.559631 0.539154 0.590576
0.591858 0.592072 0.662506
0.614441 0.645142 0.741821
0.676239 0.751648 0.869598
0.742310 0.780151 0.692719
0.737762 0.779510 0.692657
0.721252 0.753326 0.666748
0.720581 0.753784 0.666504
0.724518 0.756989 0.668610
0.768829 0.816650 0.721558
0.774658 0.825104 0.729126
0.777679 0.831329 0.737000
0.771454 0.821655 0.727356
0.745392 0.786926 0.693054
0.665466 0.667328 0.587830
0.657196 0.654999 0.576660
0.643158 0.635620 0.560364
0.616608 0.600525 0.533630
0.598236 0.571472 0.513306
0.695557 0.707275 0.612549
0.693024 0.702576 0.609375
0.688019 0.695404 0.602966
0.683289 0.688843 0.597809
0.616180 0.599335 0.527222
0.497437 0.460907 0.529449
0.493011 0.458221 0.552094
0.520905 0.512665 0.616180
0.554047 0.574768 0.694702
0.603546 0.680573 0.820374
0.766907 0.818146 0.733337
0.754761 0.803436 0.716827
0.732910 0.775757 0.692505
0.724945 0.760468 0.676056
0.728851 0.765869 0.678101
0.770966 0.820923 0.725098
0.774506 0.824188 0.728394
0.777405 0.830231 0.735596
0.777527 0.831116 0.736328
0.753967 0.798462 0.705994
0.760406 0.806763 0.708923
0.746185 0.787170 0.689789
0.675018 0.680145 0.599976
0.685913 0.695221 0.612976
0.708984 0.731293 0.639130
0.692902 0.702362 0.608734
0.683929 0.689056 0.598022
0.682159 0.687286 0.595642
0.684906 0.691528 0.599548
0.612518 0.593658 0.522644
0.526062 0.508362 0.543793
0.530823 0.468323 0.550018
0.629181 0.632507 0.665955
0.599274 0.631042 0.715576
0.608490 0.648224 0.783112
0.794647 0.859100 0.772156
0.784119 0.843628 0.754700
0.762573 0.813080 0.726379
0.748077 0.793854 0.706116
0.724365 0.758240 0.670776
0.766632 0.815063 0.718048
0.772675 0.821716 0.726379
0.777069 0.828430 0.734100
0.763550 0.811127 0.717010
0.745544 0.787201 0.693817
0.741974 0.781525 0.683990
0.726624 0.760468 0.664795
0.727539 0.761902 0.666595
0.612610 0.593658 0.527557
0.605499 0.582397 0.519470
0.693726 0.704346 0.609589
0.686981 0.693085 0.600800
0.681396 0.686798 0.594757
0.664520 0.665039 0.577759
0.609131 0.588226 0.519104
0.519806 0.463501 0.512634
0.560333 0.550201 0.586884
0.611603 0.594879 0.635834
0.605621 0.622589 0.691345
0.580383 0.613007 0.743103
0.812836 0.881561 0.787933
0.792053 0.850586 0.759430
0.769714 0.821655 0.732941
0.733063 0.771698 0.684631
0.722595 0.754028 0.664948
0.766785 0.815308 0.718842
0.764801 0.811249 0.716064
0.771576 0.822510 0.728088
0.761841 0.808899 0.715729
0.737793 0.777771 0.685516
0.726868 0.760895 0.663422
0.721344 0.752228 0.656281
0.724915 0.759186 0.664978
0.620209 0.606262 0.535706
0.613159 0.594452 0.527710
0.695404 0.707031 0.611908
0.683136 0.688599 0.597137
0.680267 0.684692 0.592560
0.619568 0.604675 0.530670
0.593658 0.563629 0.502838
0.638092 0.602783 0.579742
0.635193 0.613251 0.610504
0.608185 0.569611 0.620270
0.633240 0.644073 0.688873
0.668457 0.723236 0.776611
